X: 39645
T: Templeglantine, The
R: slide
M: 12/8
K: Dmajor
|:F2A AFA Bcd A2 G|F2 A D2 F EDE E3|
F2 A AFA Bcd A2 G|F2 A E2 F DED D3:|
|:fed B2 A Bcd A2 g|fed def e3 e2 g|
fed B2 A Bcd A2 G|F2 A E2 F DED D3:|

